dist/icons/svgs/rotate-left-solid.svg

<svg xmlns="http://www.w3.org/2000/svg" width="24" height="24" fill="currentcolor" class="icon-rotate-left-solid" viewBox="0 0 24 24">
  <path d="M3.875 10.75H3.5625C3.01562 10.75 2.625 10.3594 2.625 9.81252V4.81252C2.625 4.46096 2.82031 4.1094 3.17188 3.95315C3.52344 3.83596 3.95312 3.91408 4.22656 4.14846L5.82812 5.78908C9.26562 2.42971 14.7734 2.42971 18.1719 5.82815C21.5703 9.26565 21.5703 14.7735 18.1719 18.211C14.7344 21.6094 9.22656 21.6094 5.78906 18.211C5.32031 17.7031 5.32031 16.9219 5.78906 16.4531C6.29688 15.9453 7.07812 15.9453 7.54688 16.4531C10.0078 18.875 13.9531 18.875 16.4141 16.4531C18.8359 13.9922 18.8359 10.0469 16.4141 7.58596C13.9922 5.16408 10.0469 5.16408 7.58594 7.5469L9.22656 9.14846C9.46094 9.4219 9.53906 9.85158 9.42188 10.2031C9.26562 10.5547 8.91406 10.75 8.5625 10.75H3.875Z"/>
</svg>

<svg xmlns="http://www.w3.org/2000/svg" width="24" height="24" fill="currentColor" class="icon-rotate-left-solid" viewBox="0 0 24 24">
  <path d="M3.875 10.75h-.312c-.547 0-.938-.39-.938-.937v-5c0-.352.195-.704.547-.86a1.14 1.14 0 0 1 1.055.195L5.828 5.79c3.438-3.36 8.945-3.36 12.344.04a8.794 8.794 0 0 1 0 12.382 8.794 8.794 0 0 1-12.383 0c-.469-.508-.469-1.29 0-1.758.508-.508 1.29-.508 1.758 0a6.32 6.32 0 0 0 8.867 0 6.32 6.32 0 0 0 0-8.867c-2.422-2.422-6.367-2.422-8.828-.04l1.64 1.602c.235.274.313.704.196 1.055a.94.94 0 0 1-.86.547z"/>
</svg>
